X:57
%%etbk:tnset id:19,pos:3,rep:3x,ant:
%%etbk:wsite http://www.thesession.org/tunes/display/2323
%%etbk:color #e6ffe6
%%etbk:pldat 2016-09-17T14:32,2016-09-10T16:32,2016-09-06T16:18,2016-08-09T17:51,2016-08-02T15:26,2016-07-23T16:01,2016-07-18T19:33,2016-07-15T16:19,2016-07-12T16:31,2016-07-09T13:30,2016-06-13T17:31,2016-06-12T14:38,2016-05-30T19:01,2016-05-25T16:24,2016-05-24T17:09,2016-05-16T16:38,2016-05-15T16:16,2016-05-14T17:26,2016-05-12T19:18,2016-05-09T19:35,2016-05-04T17:07,2016-05-03T18:37,2015-07-07T17:02,2015-03-25T18:18,2015-03-23T18:23,2015-01-31T16:41,2014-12-15T16:38,2014-09-21T11:45,2014-05-20T16:32,2014-05-01T18:10,2014-02-12T19:24,2013-12-09T18:50,2013-12-04T18:08,2013-11-27T17:35,2013-11-25T19:40,2013-11-24T15:30,2013-05-22T16:23,2013-05-15T17:13
T: Jack Rowe
Z: Piano Box Version by Martin Fleischmann
H: Created 2013-02-19 /  Last Modified 2016-05-12
M: 4/4
L: 1/8
R: reel
K: Gmaj
|: !5!A3F !4!GFED | !2!(3EFG !2!AB !4!cABA | !1!G!2!B!3!d!5!g !4!e!5!g!3!d!2!B | !1!G!3!B!1!A!3!F !4!GFED |
!2!E!5!AAF !4!GFED | !2!(3EFG !2!AB !4!c2BA | !1!G!3!B!5!dB !2!AcBA | !1!G!2!E!1!DE !4!G4:|
|: !4!g3e !3!fedf | !2!efge !3!fedf | !2!e!1!B!2!B!1!B !2!efge | !3!fdef !4!g3!2!f |
!3!gba!3!g !2!e!5!ag!2!e | !1!d2!3!B!2!A !3!BA!1!G!2!F | !1!GBdB !2!AcBA | !1!G!2!E!1!DE !4!G4:||


